build/img/icons/calc2.svg

<svg width="105" height="123" viewBox="0 0 105 123" fill="none" xmlns="http://www.w3.org/2000/svg">
<path fill-rule="evenodd" clip-rule="evenodd" d="M2.73712 3.00401C4.52306 1.11232 6.99967 0 9.63782 0H95.3622C98.0003 0 100.477 1.11232 102.263 3.00401C104.041 4.88735 105 7.39173 105 9.95506V112.105C105 114.669 104.041 117.173 102.263 119.056C100.477 120.948 98.0003 122.06 95.3622 122.06H9.63782C6.99968 122.06 4.52306 120.948 2.73712 119.056C0.959061 117.173 0 114.669 0 112.105V9.95506C0 7.39172 0.959063 4.88734 2.73712 3.00401ZM9.63782 8.56011C9.43404 8.56011 9.18511 8.64359 8.9615 8.88044C8.73 9.12565 8.56011 9.50819 8.56011 9.95506V112.105C8.56011 112.552 8.73 112.935 8.9615 113.18C9.18511 113.417 9.43403 113.5 9.63782 113.5H95.3622C95.566 113.5 95.8149 113.417 96.0385 113.18C96.27 112.935 96.4399 112.552 96.4399 112.105V9.95506C96.4399 9.50819 96.27 9.12565 96.0385 8.88044C95.8149 8.64359 95.566 8.56011 95.3622 8.56011H9.63782Z" fill="#F3F3F3"/>
<path fill-rule="evenodd" clip-rule="evenodd" d="M18.7529 21.3054C18.7529 18.9416 20.6692 17.0254 23.033 17.0254H81.9685C84.3323 17.0254 86.2485 18.9416 86.2485 21.3054V46.843C86.2485 49.2068 84.3323 51.123 81.9685 51.123H23.033C20.6692 51.123 18.7529 49.2068 18.7529 46.843V21.3054ZM27.313 25.5855V42.5629H77.6884V25.5855H27.313Z" fill="#F3F3F3"/>
<path fill-rule="evenodd" clip-rule="evenodd" d="M17.417 69.2685C19.1359 67.6457 21.8447 67.7236 23.4675 69.4424L42.2197 89.305C43.8424 91.0238 43.7645 93.7326 42.0457 95.3554C40.3269 96.9781 37.618 96.9002 35.9953 95.1814L17.2431 75.3189C15.6203 73.6001 15.6982 70.8912 17.417 69.2685Z" fill="#F3F3F3"/>
<path fill-rule="evenodd" clip-rule="evenodd" d="M42.0457 69.2685C43.7645 70.8912 43.8424 73.6001 42.2197 75.3189L23.4675 95.1814C21.8447 96.9002 19.1359 96.9781 17.417 95.3554C15.6982 93.7326 15.6203 91.0238 17.2431 89.305L35.9953 69.4424C37.618 67.7236 40.3269 67.6457 42.0457 69.2685Z" fill="#F3F3F3"/>
<path fill-rule="evenodd" clip-rule="evenodd" d="M58.9341 92.2427C58.9341 89.8789 60.8503 87.9626 63.2141 87.9626H84.6452C87.009 87.9626 88.9253 89.8789 88.9253 92.2427C88.9253 94.6065 87.009 96.5228 84.6452 96.5228H63.2141C60.8503 96.5228 58.9341 94.6065 58.9341 92.2427Z" fill="#F3F3F3"/>
<path fill-rule="evenodd" clip-rule="evenodd" d="M58.9341 75.2173C58.9341 72.8535 60.8503 70.9373 63.2141 70.9373H84.6452C87.009 70.9373 88.9253 72.8535 88.9253 75.2173C88.9253 77.5811 87.009 79.4974 84.6452 79.4974H63.2141C60.8503 79.4974 58.9341 77.5811 58.9341 75.2173Z" fill="#F3F3F3"/>
</svg>

<svg width="105" height="123" fill="none" xmlns="http://www.w3.org/2000/svg">
    <path fill-rule="evenodd" clip-rule="evenodd" d="M2.737 3.004C4.523 1.112 7 0 9.637 0h85.725c2.638 0 5.115 1.112 6.901 3.004C104.041 4.887 105 7.392 105 9.955v102.15c0 2.564-.959 5.068-2.737 6.951-1.786 1.892-4.263 3.004-6.9 3.004H9.637c-2.638 0-5.115-1.112-6.9-3.004C.958 117.173 0 114.669 0 112.105V9.955c0-2.563.96-5.068 2.737-6.951zm6.9 5.556c-.203 0-.452.084-.676.32a1.573 1.573 0 0 0-.4 1.075v102.15c0 .447.169.83.4 1.075.224.237.473.32.677.32h85.724c.204 0 .453-.083.677-.32.231-.245.4-.628.4-1.075V9.955c0-.447-.169-.83-.4-1.075-.224-.236-.473-.32-.677-.32H9.638z" fill="#F3F3F3"/>
    <path fill-rule="evenodd" clip-rule="evenodd" d="M18.753 21.305a4.28 4.28 0 0 1 4.28-4.28h58.936a4.28 4.28 0 0 1 4.28 4.28v25.538a4.28 4.28 0 0 1-4.28 4.28H23.033a4.28 4.28 0 0 1-4.28-4.28V21.305zm8.56 4.28v16.978h50.375V25.585H27.313zM17.417 69.269a4.28 4.28 0 0 1 6.05.173L42.22 89.305a4.28 4.28 0 0 1-6.225 5.876L17.243 75.32a4.28 4.28 0 0 1 .174-6.05z" fill="#F3F3F3"/>
    <path fill-rule="evenodd" clip-rule="evenodd" d="M42.046 69.269a4.28 4.28 0 0 1 .174 6.05L23.468 95.18a4.28 4.28 0 0 1-6.225-5.876l18.752-19.863a4.28 4.28 0 0 1 6.05-.173zM58.934 92.243a4.28 4.28 0 0 1 4.28-4.28h21.431a4.28 4.28 0 0 1 0 8.56h-21.43a4.28 4.28 0 0 1-4.28-4.28zM58.934 75.217a4.28 4.28 0 0 1 4.28-4.28h21.431a4.28 4.28 0 1 1 0 8.56h-21.43a4.28 4.28 0 0 1-4.28-4.28z" fill="#F3F3F3"/>
</svg>
